svg/shape/heart_crack_fill.svg

<?xml version="1.0" encoding="UTF-8"?>
<svg width="24px" height="24px" viewBox="0 0 24 24" version="1.1" xmlns="http://www.w3.org/2000/svg" xmlns:xlink="http://www.w3.org/1999/xlink">
    <title>heart_crack_fill</title>
    <g id="Icon" stroke="none" stroke-width="1" fill="none" fill-rule="evenodd">
        <g id="Shape" transform="translate(-672.000000, -48.000000)" fill-rule="nonzero">
            <g id="heart_crack_fill" transform="translate(672.000000, 48.000000)">
                <path d="M24,0 L24,24 L0,24 L0,0 L24,0 Z M12.5935,23.2578 L12.5819,23.2595 L12.5109,23.295 L12.4919,23.2987 L12.4767,23.295 L12.4057,23.2595 C12.3958,23.2564 12.387,23.259 12.3821,23.2649 L12.378,23.2758 L12.3609,23.7031 L12.3659,23.7235 L12.3769,23.7357 L12.4805,23.8097 L12.4953,23.8136 L12.5071,23.8097 L12.6107,23.7357 L12.6233,23.7197 L12.6267,23.7031 L12.6096,23.2758 C12.6076,23.2657 12.601,23.2593 12.5935,23.2578 Z M12.8584,23.1453 L12.8445,23.1473 L12.6598,23.2397 L12.6499,23.2499 L12.6472,23.2611 L12.6651,23.6906 L12.6699,23.7034 L12.6784,23.7105 L12.8793,23.8032 C12.8914,23.8069 12.9022,23.803 12.9078,23.7952 L12.9118,23.7812 L12.8777,23.1665 C12.8753,23.1546 12.8674,23.147 12.8584,23.1453 Z M12.143,23.1473 C12.1332,23.1424 12.1222,23.1453 12.1156,23.1526 L12.1099,23.1665 L12.0758,23.7812 C12.0751,23.7927 12.0828,23.8019 12.0926,23.8046 L12.1083,23.8032 L12.3092,23.7105 L12.3186,23.7024 L12.3225,23.6906 L12.3404,23.2611 L12.3372,23.2485 L12.3278,23.2397 L12.143,23.1473 Z" id="MingCute"></path>
                <path d="M11.9397,4.29022 C9.88049,2.65366 7.44713,2.67062 5.50615,3.80149 C3.41065,5.02239 1.9372,7.50113 2.00206,10.3933 C2.13902,16.5002 10.5000003,21.0002 12.0000003,21.0002 C13.5000003,21.0002 21.861,16.5002 21.9979,10.3933 C22.0628,7.50113 20.5893,5.02239 18.4938,3.80149 C17.6468,3.30798 16.706,3.02661 15.7434,3.00222 L11.3714,7.95713 L13.7071,10.2928 C14.0442,10.6299 14.0965,11.158 13.8321,11.5546 L11.8321,14.5546 C11.5257,15.0142 10.9048,15.1383 10.4453,14.832 C9.98577,14.5256 9.8616,13.9048 10.1679,13.4452 L11.7132,11.1274 L9.29289,8.70705 C8.9195,8.33365 8.90078,7.73428 9.25016,7.33831 L11.9397,4.29022 Z" id="路径" fill="#09244B"></path>
            </g>
        </g>
    </g>
</svg>

<svg xmlns="http://www.w3.org/2000/svg" width="24" height="24"><g fill="none" fill-rule="nonzero"><path d="M24 0v24H0V0h24ZM12.594 23.258l-.012.002-.071.035-.02.004-.014-.004-.071-.036c-.01-.003-.019 0-.024.006l-.004.01-.017.428.005.02.01.013.104.074.015.004.012-.004.104-.074.012-.016.004-.017-.017-.427c-.002-.01-.009-.017-.016-.018Zm.264-.113-.014.002-.184.093-.01.01-.003.011.018.43.005.012.008.008.201.092c.012.004.023 0 .029-.008l.004-.014-.034-.614c-.003-.012-.01-.02-.02-.022Zm-.715.002a.023.023 0 0 0-.027.006l-.006.014-.034.614c0 .012.007.02.017.024l.015-.002.201-.093.01-.008.003-.011.018-.43-.003-.012-.01-.01-.184-.092Z"/><path fill="#09244B" d="M11.94 4.29c-2.06-1.636-4.493-1.62-6.434-.489-2.095 1.221-3.569 3.7-3.504 6.592C2.14 16.5 10.5 21 12 21s9.861-4.5 9.998-10.607c.065-2.892-1.409-5.37-3.504-6.592a5.755 5.755 0 0 0-2.75-.799L11.37 7.957l2.336 2.336a1 1 0 0 1 .125 1.262l-2 3a1 1 0 0 1-1.664-1.11l1.545-2.318-2.42-2.42a1 1 0 0 1-.043-1.369l2.69-3.048Z"/></g></svg>
